!!!!SEGMENT: pl-kc--40102-iii-1-saf--002-054_zielenski-mikolaj--communiones-totius-anni-in-festo-s-matthiae-apostoli-et-evangelistae-magna-est-gloria-eius.krn
!!!cenid: 16xx:1585
!!!COM: Zieleński, Mikołaj
!!!COM-rismID: pe30013481
!!!CDT: <1611->1611
!!!CNT: Polish
!!!GTL: Communiones totius anni
!!!OTL: In festo S. Matthiae Apostoli et Evangelistae/Magna est gloria eius
!!!OMV: 054
!!!PDT: 1611
!!!AGN:
!!!SMS-siglum: PL-Kc
!!!SMS-shelfmark: 40102 III/1 Saf.
!!!SMS-shelfwork: 002-054 G
!!!SMS-variant:
!!!SMS-altvar:
!!!NIFC-rismSourceID: 990069887
!!!NIFC-rismChildID: 990069887
!!!NIFC-islandoraID: none
!!!URL-pdf-islandora:
!!!URL-scan: https://cyfrowe.mnk.pl/dlibra/publication/24235/edition/23926/content?ref=desc @EN{Scan on The National Museum in Krakow Website} @PL{Skany w portalu Biblioteka Cyfrowa Muzeum Narodowego w Krakowie}
!!!IIIF:
!!!ONB-nifc: UWAGA: str. 75. Numer w źródle: 62 (numer 63 nad ostatnią pięciolinią w 1-ym systemie to jedynie adnotacja). Uwaga: W xml metrum 2/1 do źródłowego C| i odpowiednio 3/1 do 3/2
!!!AIN: 4 organ
!!!key:
**kern	**kern	**kern	**kern
*group1	*group1	*group1	*group1
*part4	*part3	*part2	*part1
*staff4	*staff3	*staff2	*staff1
*I""Organo	*I""Organo	*I""Organo	*I""Organo
*I''org	*I''org	*I''org	*I''org
*Iorgan	*Iorgan	*Iorgan	*Iorgan
*ICklav	*ICklav	*ICklav	*ICklav
*clefF4	*clefC3	*clefC3	*clefG2
*k[]	*k[]	*k[]	*k[]
*C:	*C:	*C:	*C:
*M2/1	*M2/1	*M2/1	*M2/1
*met(C|)	*met(C|)	*met(C|)	*met(C|)
=1	=1	=1	=1
!LO:TX:a:t=Alio modo,Semplice,cum Organo,& Inſtrumentis.   63.	!	!	!
*	*met(c|)	*met(c|)	*met(c|)
!	!	!	!LO:TX:b:t=Magna eſt gloria eis.
!	!	!	!LO:TX:a:t=62. In feſto S. Matthaei Apoſtoli,& Euangeliſtae à 6. Cantores ſoli canent cum Organo ſine inſtrumentis
00r	00r	1.g	1.dd
.	.	2g\	2dd\
=2-	=2-	=2-	=2-
.	.	2e\	2ee\
.	.	2.f\	2.cc\
.	.	4f\	4cc\
.	.	2d\	2dd\
=3	=3	=3	=3
00r	00r	4c/	1ee
.	.	4d\	.
.	.	4e\	.
.	.	4f\	.
.	.	4g\	2.dd\
.	.	4G/	.
.	.	4.g\	.
.	.	.	4dd\
.	.	8f\	.
=4-	=4-	=4-	=4-
.	.	4e\	4.gg\
.	.	4e\	.
.	.	.	8ff\
.	.	2a\	4ee\
.	.	.	4ee\
.	.	2d\	2ff\
.	.	4r	[y2dd\
.	.	4G/	.
=5	=5	=5	=5
!	!	!	!LO:N:xstem:cue
00r	00r	4.g\	4dd\]
.	.	.	4dd\
.	.	8f\	.
.	.	4e\	4.ee\
.	.	4e\	.
.	.	.	8dd\
.	.	2f\	4cc\
.	.	.	4a/
.	.	4d\	2dd\
.	.	4B/	.
=6-	=6-	=6-	=6-
.	.	4.e\	4b/
.	.	.	4b/
.	.	8d\	.
.	.	4c/	4.cc\
.	.	4A/	.
.	.	.	8b/
.	.	2d\	2a/
.	.	2G/	[2b/
=7	=7	=7	=7
1.D	2r	1D	2b/]
.	1d	.	4a/
.	.	.	4g/
.	.	1d	2a/
2D/	2d\	.	2a/
=8-	=8-	=8-	=8-
*	*	*custos:g	*
2BB/	2d\	0G	1g
2.C/	2.c/	.	.
*	*	*	*custos:d
.	.	.	1r
4C/	4c/	.	.
*custos:AA	*custos:e	*	*
2BB/	2d\	.	.
!!LO:LB:g=original
=9	=9	=9	=9
1AA	2e\	00r	00r
.	4d\	.	.
.	4c/	.	.
1.EE	4B/	.	.
.	4G/	.	.
.	4.d\	.	.
.	8c/	.	.
=10-	=10-	=10-	=10-
.	4B/	.	.
.	4B/	.	.
4E\	4.e\	.	.
4E\	.	.	.
.	8d\	.	.
2A\	2c#X/	.	.
4D/	2d\	.	.
4GG/	.	.	.
=11	=11	=11	=11
4.C/	4r	00r	00r
.	4G/	.	.
8BB/	.	.	.
4AA/	4.c/	.	.
4AA/	.	.	.
.	8B/	.	.
2C/	4A/	.	.
.	4A/	.	.
2DD/	2.d\	.	.
=12-	=12-	=12-	=12-
1AA	.	.	.
.	8c#X/	.	.
.	8B/	.	.
.	2c#/	.	.
2DD/	2d\	.	.
[2D/	[2A/	.	.
=13	=13	=13	=13
2D/]	2A/]	1r	1r
2D/	2A/	.	.
1GG	1B	2r	2r
.	.	1g\	1dd\
=14-	=14-	=14-	=14-
1r	1r	.	.
.	.	2g\	2dd\
2r	2r	2c/	2ee\
[2C/	[2c/	[<2g\	[<2ee\
=15	=15	=15	=15
2C/]	2c/]	2g\]	2ee\]
2C/	2c/	2g\	2ee\
2FF/	2c/	2a\	2ff\
2.F\	2.c/	2.f\	2.cc\
=16-	=16-	=16-	=16-
.	.	.	.
4F\	4c/	4f\	4cc\
2D/	2f\	2f\	2dd\
2A\	2e\	2a\	2ee\
2D/	2d\	2a\	2ff\
=17	=17	=17	=17
*	*lig	*	*
2A\	1e	1a	1ee
2AA/	.	.	.
1.D	1.f#X	1a	1dd
*	*Xlig	*	*
=18-	=18-	=18-	=18-
.	.	1r	4r
.	.	.	4a/
4r	2f#\	.	4.dd\
4GG/	.	.	.
.	.	.	8cc\
4.G\	2d\	4r	4b/
.	.	4d\	4b/
8F\	.	.	.
4E\	2r	4.e\	2cc\
4E\	.	.	.
.	.	8d\	.
=19	=19	=19	=19
2F\	4r	4c/	1a
.	4A/	4c/	.
2D/	4.d\	4.f\	.
.	8c/	8e\	.
4r	4B/	4d\	1r
4GG/	4B/	4d\	.
4.C/	1c\	1e\	.
8BB/	.	.	.
=20--	=20-	=20-	=20-
4AA/	.	.	2r
4AA/	.	.	.
2D/	1d	2A/	4r
.	.	.	4dd\
2GG/	.	1r	4.gg\
.	.	.	8ff\
4r	2e\	.	4ee\
4C/	.	.	4ee\
=21	=21	=21	=21
4.F\	2f\	4r	2cc\
.	.	4A/	.
8E\	.	.	.
4D/	2f\	4.d\	2dd\
4D/	.	.	.
.	.	8c/	.
4.E\	1e	4B/	4r
.	.	4B/	4b/
8D/	.	.	.
2C/	.	1c\	4.ee\
.	.	.	8dd\
=22-	=22-	=22-	=22-
4r	2e\	.	4.cc\
4AA/	.	.	.
.	.	.	8b/
4.D/	2r	1d	4a/
.	.	.	4a/
8C/	.	.	.
2BB/	2.B/	.	2b/
2GG/	.	[y2g\	2cc\
.	8A/	.	.
.	8G/	.	.
=23	=23	=23	=23
!	!	!LO:N:xstem:cue	!
1D	1A	4g\]	1dd
.	.	8f#X\	.
.	.	8e\	.
.	.	2f#\	.
1GG	1G	2g\	2dd\
.	.	1g\	1dd\
=24-	=24-	=24-	=24-
0r	1r	.	.
.	.	2g\	2dd\
.	2r	2c/	1ee
.	[2c/	[<2g\	.
=25	=25	=25	=25
1r	2c/]	2g\]	0r
.	2c/	2g\	.
2r	2F/	2a\	.
1F\	1c\	2f\	.
=26-	=26-	=26-	=26-
.	.	2f\	1r
2G\	2B-X/	2d\	.
2D/	2A/	2d\	2r
[2D/	[<2d\	[<2a\	2ff\
=27	=27	=27	=27
2D/]	2d\]	2a\]	2ff\
2AA/	2e\	2a\	2ee\
1D	1f	2a\	2dd\
.	.	2d\	2ff\
=28-	=28-	=28-	=28-
1r	1r	2a\	2ee\
.	.	4a\	4ee\
.	.	4d\	4ff\
4r	2g\	2g\	2dd\
4GG/	.	.	.
2C/	2g\	2c/	2ee\
=29	=29	=29	=29
4C/	4e\	2r	2r
4AA/	4a\	.	.
2D/	2f#X\	4r	4r
.	.	4a\	4dd\
2GG/	2g\	2g\	2gg\
4r	4r	4e\	4gg\
4C/	4g\	4c/	4ee\
=30-	=30-	=30-	=30-
2F\	2fny\	2c/	1ff
4F\	4d\	2d\	.
4D/	4d\	.	.
*	*custos:e	*	*
2.G\	1d	2r	2dd\
*	*	*custos:g	*custos:gg
.	.	[<2g\	[<2gg\
*custos:E	*	*	*
4F\	.	.	.
!!LO:LB:g=original
=31	=31	=31	=31
2E\	2e\	2g\]	2gg\]
4F\	2A/	2a\	2ff\
4FF/	.	.	.
2C/	2e\	2g\	2ee\
2D/	2A/	2f#X\	1dd\
=32--	=32-	=32-	=32-
2BB/	1r	2g\	.
2C/	.	2e\	2cc\
2GG/	1B	2d\	4b/
.	.	.	8g/
.	.	.	8a/
2G\	.	[<2d\	8b/
.	.	.	8cc\
.	.	.	8dd\
.	.	.	8ee\
=33	=33	=33	=33
1F	2A/	2d\]	4ff\
.	.	.	8f/
.	.	.	8g/
.	2A/	1c	8a/
.	.	.	8b/
.	.	.	8cc\
.	.	.	8dd\
*lig	*	*	*
1E	1.G	.	4ee\
.	.	.	8e/
.	.	.	8f/
.	.	2G/	8g/
.	.	.	8a/
.	.	.	8b/
.	.	.	8cc\
=34-	=34-	=34-	=34-
1D	.	1A	4dd\
.	.	.	8d/
.	.	.	8e/
.	2F/	.	8f/
.	.	.	8g/
.	.	.	8a/
.	.	.	8b/
*Xlig	*	*	*
1C	2E/	1e	8cc\
.	.	.	8b/
.	.	.	8a/
.	.	.	8b/
.	2c/	.	8cc\
.	.	.	8dd\
.	.	.	8ee\
.	.	.	8cc\
=35	=35	=35	=35
0G	1B	1d	4dd\
.	.	.	8g/
.	.	.	8a/
.	.	.	8b/
.	.	.	8cc\
.	.	.	8dd\
.	.	.	8ee\
.	2.B/	1.g	4dd\
.	.	.	4.gg\
.	.	.	8ff\
.	4c/	.	4ee\
=36-	=36-	=36-	=36-
1GG	2d\	.	2dd\
.	2d\	2g\	2dd\
2C/	2c/	2g\	2ee\
[y2C/	[y2e\	[<2g\	4cc\
.	.	.	4dd\
=37	=37	=37	=37
!LO:N:xstem:cue	!LO:N:xstem:cue	!LO:TX:t=P:problem=brak zakończenia ligatury	!
4C/]	4e\]	2g\]	4ee\
4D/	8d\	.	4ff\
.	8c\	.	.
4E\	4B/	2g\	1gg
4F\	4A/	.	.
2.G\	4B/	2d\	.
.	4c/	.	.
.	4d\	2d\	2dd\
4G\	4B/	.	.
=38	=38	=38	=38
2C/	2c/	2.g\	2ee\
2BB/	2d\	.	1dd
.	.	4f\	.
1C	1e	2.e\	.
.	.	.	4cc\
.	.	4d\	4b/
=39	=39	=39	=39
1C	1e	1c	4cc\
.	.	.	4g/
.	.	.	4cc\
.	.	.	4dd\
1C	1c	1g	2ee\
.	.	.	2ee\
=40-	=40-	=40-	=40-
0GGl	0dl	0gl	0ddl
==	==	==	==
*-	*-	*-	*-
!!!system-decoration: *
!!!RDF**kern: l = terminal long
!!!RDF**kern: > = above
!!!RDF**kern: < = below
!!!ENC: Filip Voros
!!!END: 2021-12-22
!!!EED: Andrzej Borzym
!!!EEV: 2021-12-27
!!!YEC: Copyright 2022 Narodowy Instytut Fryderyka Chopina (https://polishscores.org)
!!!YEM: License CC-BY-4.0 (https://creativecommons.org/licenses/by/4.0)
